X:1
T:Will You Come?
T:Will You Come?
T:John Robson Sweney
T:Frances Jane (Fanny) Crosby, 1878
T:Public Domain Courtesy of the Cyber Hymnal™
T:Public Domain Courtesy of the Cyber Hymnal™
C:John Robson Sweney
Z:Public Domain
Z:Courtesy of the Cyber Hymnal™
%%score ( 1 2 ) ( 3 4 )
L:1/8
Q:1/4=100
M:4/4
K:G
V:1 treble 
V:2 treble 
V:3 bass 
V:4 bass 
V:1
 DD | [DG]2 [GB][DA] [DG]2 [DG][GB] | [Gd]2 [Ge][Gd] [GB]4 | [Fd]2 [FA][GB] [Ac]2 ([GB][DA]) | %4
w: 1.~Will you|come, will you come, with your|poor brok- en heart,|Bur- dened and sin op- *|
w: 2.~Will you|come, will you come? There is|mer- cy for you,|Balm for your ach- ing *|
w: 3.~Will you|come, will you come? You have|no- thing to pay;|Je- sus, Who loves you *|
w: 4.~Will you|come, will you come? How He|pleads with you now!|Fly to His lov- ing *|
 ([DG]4 D2) DD | [DG]2 [GB][DA] [DG]2 [DG][GB] | [Ge]2 [Ge][Gd] [GB]4 | %7
w: pressed? * Lay it|down at the feet of your|Sav- ior and Lord,|
w: breast; * On- ly|come as you are, and be-|lieve on His name,|
w: best, * By His|death on the cross pur- chased|life for your soul,|
w: breast; * And what-|ev- er your sin or your|sor- row may be,|
 [Fd]2 [FA][GB] [Ac]2 ([GB][DA]) | [DG]8 ||"^Refrain" [Fd]2 [FA][GB] [Ac]4 | [GB]2 [DG][DA] [DG]4 | %11
w: Je- sus will give you *|rest.|||
w: Je- sus will give you *|rest.|||
w: Je- sus will give you *|rest.|||
w: Je- sus will give you *|rest.|||
 D2 [DG][GB] [Gd]2 [Ac][GB] | [FA]6 D2 | [DG]2 [GB][DA] [DG]2 (GB) | [Gd][Gd][Ge][Gd] [GB]4 | %15
w: ||||
w: ||||
w: ||||
w: ||||
 [Fd]2 [FA][GB] [Ac]2 ([GB][DA]) | [DG]6 |] %17
w: ||
w: ||
w: ||
w: ||
V:2
 DD | x8 | x8 | x8 | x4 D2 DD | x8 | x8 | x8 | x8 || x8 | x8 | D2 x6 | x6 D2 | x6 G2 | x8 | x8 | %16
 x6 |] %17
V:3
 [G,B,][G,B,] | [G,B,]2 [G,D][G,C] [G,B,]2 [G,B,][G,D] | [G,B,]2 [G,C][G,B,] [G,D]4 | %3
w: ~ ~|~ ~ ~ ~ ~ ~|~ ~ ~ ~|
 [D,D]2 [D,D][D,D] [D,D]2 (DC) | [G,B,]6 [G,B,][G,B,] | [G,B,]2 [G,D][G,C] [G,B,]2 [G,B,][G,D] | %6
w: ~ ~ ~ ~ ~ *|~ ~ ~|~ ~ ~ ~ ~ ~|
 [G,B,]2 [G,C][G,B,] [G,D]4 | [D,D]2 [D,D][D,D] [D,D]2 (DC) | [G,,G,B,]8 || %9
w: ~ ~ ~ ~|~ ~ ~ ~ ~ *|~|
 [D,A,]2 [D,D][D,D] [D,D]4 | [G,D]2 [G,B,][G,C] [G,B,]4 | [G,B,]2 [G,B,][G,D] [B,D]2 D2 | %12
w: O hap- py rest!|Sweet, hap- py rest!|Je- sus will give you|
 D6 (B,,A,,) | [G,,B,]2 [G,D][G,C] [G,B,]2 (B,D) | [G,B,][G,B,][G,C][G,B,] [G,D]4 | %15
w: rest. Oh! *|Why won’t you come in *|simp- le, trust- ing faith?|
 [D,D]2 [D,D][D,D] [D,D]2 (DC) | [G,,G,B,]6 |] %17
w: Je- sus will give you *|rest.|
V:4
 x2 | x8 | x8 | x6 D,2 | x8 | x8 | x8 | x6 D,2 | x8 || x8 | x8 | x6 (F,G,) | (D,2 D,D,D,C,) x2 | %13
 x6 G,2 | x8 | x6 D,2 | x6 |] %17

